public/icons/Gmail-Dark.svg

<svg width="256" height="256" viewBox="0 0 256 256" fill="none" xmlns="http://www.w3.org/2000/svg">
<rect width="256" height="256" rx="60" fill="#242938"/>
<path d="M41.6364 203.028H73.4545V125.755L28 91.6646V189.392C28 196.937 34.1136 203.028 41.6364 203.028Z" fill="#4285F4"/>
<path d="M182.545 203.028H214.364C221.909 203.028 228 196.915 228 189.392V91.6646L182.545 125.755" fill="#34A853"/>
<path d="M182.545 66.6643V125.755L228 91.6643V73.4825C228 56.6189 208.75 47.0052 195.273 57.1189" fill="#FBBC04"/>
<path d="M73.4545 125.755V66.6646L128 107.574L182.545 66.6646V125.755L128 166.665" fill="#EA4335"/>
<path d="M28 73.4825V91.6643L73.4545 125.755V66.6643L60.7273 57.1189C47.2273 47.0052 28 56.6189 28 73.4825Z" fill="#C5221F"/>
</svg>

<svg xmlns="http://www.w3.org/2000/svg" width="256" height="256" fill="none"><rect width="256" height="256" fill="#242938" rx="60"/><path fill="#4285F4" d="M41.636 203.028h31.818v-77.273L28 91.665v97.727c0 7.545 6.114 13.636 13.636 13.636"/><path fill="#34A853" d="M182.545 203.028h31.819c7.545 0 13.636-6.113 13.636-13.636V91.665l-45.455 34.09"/><path fill="#FBBC04" d="M182.545 66.664v59.091L228 91.665V73.481c0-16.863-19.25-26.477-32.727-16.363"/><path fill="#EA4335" d="M73.455 125.755v-59.09L128 107.574l54.545-40.91v59.091L128 166.665"/><path fill="#C5221F" d="M28 73.483v18.181l45.454 34.091v-59.09l-12.727-9.546C47.227 47.005 28 56.619 28 73.483"/></svg>
